X: 9225
T: Dan Collins' Father's
R: jig
M: 6/8
K: Dmajor
|:d2A BAF|def a3|~a3 f2e|d2d gfe|
d2A BAF|def a3|~a3 f2e|edc d3:|
|:faa faa|afe f3|~a3 f2e|d2d gfe|
d2A BAF|def a3|~a3 f2e|edc d3:|

